images/inst.svg

<svg width="45" height="45" viewBox="0 0 45 45" fill="none" xmlns="http://www.w3.org/2000/svg">
<path fill-rule="evenodd" clip-rule="evenodd" d="M22.5 43C33.8218 43 43 33.8218 43 22.5C43 11.1782 33.8218 2 22.5 2C11.1782 2 2 11.1782 2 22.5C2 33.8218 11.1782 43 22.5 43ZM22.5 45C34.9264 45 45 34.9264 45 22.5C45 10.0736 34.9264 0 22.5 0C10.0736 0 0 10.0736 0 22.5C0 34.9264 10.0736 45 22.5 45Z" fill="#F13C6E"/>
<g clip-path="url(#clip0_31380_2)">
<path d="M26.125 12H17.875C14.0786 12 11 15.0786 11 18.875V27.125C11 30.9214 14.0786 34 17.875 34H26.125C29.9214 34 33 30.9214 33 27.125V18.875C33 15.0786 29.9214 12 26.125 12ZM30.9375 27.125C30.9375 29.7787 28.7787 31.9375 26.125 31.9375H17.875C15.2213 31.9375 13.0625 29.7787 13.0625 27.125V18.875C13.0625 16.2213 15.2213 14.0625 17.875 14.0625H26.125C28.7787 14.0625 30.9375 16.2213 30.9375 18.875V27.125Z" fill="#F13C6E"/>
<path d="M22 17.5C18.9626 17.5 16.5 19.9626 16.5 23C16.5 26.0374 18.9626 28.5 22 28.5C25.0374 28.5 27.5 26.0374 27.5 23C27.5 19.9626 25.0374 17.5 22 17.5ZM22 26.4375C20.1052 26.4375 18.5625 24.8948 18.5625 23C18.5625 21.1039 20.1052 19.5625 22 19.5625C23.8948 19.5625 25.4375 21.1039 25.4375 23C25.4375 24.8948 23.8948 26.4375 22 26.4375Z" fill="#F13C6E"/>
<path d="M27.9125 17.8204C28.3173 17.8204 28.6454 17.4922 28.6454 17.0875C28.6454 16.6827 28.3173 16.3546 27.9125 16.3546C27.5077 16.3546 27.1796 16.6827 27.1796 17.0875C27.1796 17.4922 27.5077 17.8204 27.9125 17.8204Z" fill="#F13C6E"/>
</g>
<defs>
<clipPath id="clip0_31380_2">
<rect width="22" height="22" fill="white" transform="translate(11 12)"/>
</clipPath>
</defs>
</svg>

<svg xmlns="http://www.w3.org/2000/svg" width="45" height="45" fill="none"><path fill="#F13C6E" fill-rule="evenodd" d="M22.5 43C33.822 43 43 33.822 43 22.5S33.822 2 22.5 2 2 11.178 2 22.5 11.178 43 22.5 43Zm0 2C34.926 45 45 34.926 45 22.5S34.926 0 22.5 0 0 10.074 0 22.5 10.074 45 22.5 45Z" clip-rule="evenodd"/><g fill="#F13C6E" clip-path="url(#a)"><path d="M26.125 12h-8.25A6.876 6.876 0 0 0 11 18.875v8.25A6.876 6.876 0 0 0 17.875 34h8.25A6.876 6.876 0 0 0 33 27.125v-8.25A6.876 6.876 0 0 0 26.125 12Zm4.813 15.125a4.818 4.818 0 0 1-4.813 4.813h-8.25a4.818 4.818 0 0 1-4.813-4.813v-8.25a4.818 4.818 0 0 1 4.813-4.813h8.25a4.818 4.818 0 0 1 4.813 4.813v8.25Z"/><path d="M22 17.5a5.5 5.5 0 1 0 0 11 5.5 5.5 0 0 0 0-11Zm0 8.938A3.442 3.442 0 0 1 18.562 23 3.441 3.441 0 0 1 22 19.562 3.441 3.441 0 0 1 25.438 23 3.442 3.442 0 0 1 22 26.438ZM27.913 17.82a.733.733 0 1 0 0-1.465.733.733 0 0 0 0 1.465Z"/></g><defs><clipPath id="a"><path fill="#fff" d="M11 12h22v22H11z"/></clipPath></defs></svg>
